teeny/outline/pound.svg

<svg width="15" height="15" viewBox="0 0 15 15" fill="none" xmlns="http://www.w3.org/2000/svg">
<path d="M0.5 14.5L1.60263 14.1325C2.73572 13.7548 3.5 12.6944 3.5 11.5V4.44174C3.5 2.26478 5.26478 0.5 7.44174 0.5H8.30742C9.93365 0.5 11.396 1.49009 12 3M3 13H4.08359C5.01506 13 5.93374 13.2169 6.76687 13.6334L6.81672 13.6584C8.50588 14.5029 10.4941 14.5029 12.1833 13.6584L13.5 13M1 7.5H9" stroke="black"/>
</svg>

<svg viewBox="0 0 15 15" xmlns="http://www.w3.org/2000/svg"><path fill="none" stroke="#000" d="M.5 14.5l1.1-.37c1.13-.38 1.89-1.44 1.89-2.64V4.43C3.49 2.25 5.25.48 7.43.48h.86c1.62 0 3.08.99 3.69 2.5m-9 10h1.08c.93 0 1.85.21 2.68.63l.04.02c1.68.84 3.67.84 5.36 0l1.31-.66M.95 7.47h8"/></svg>
